packages/icons/raw/imported/TextMarker.svg

<svg width="32" height="32" viewBox="0 0 32 32" fill="none" xmlns="http://www.w3.org/2000/svg">
<path d="M8.95341 20.9387L7.55144 22.3422C6.97073 22.9236 6.97073 23.8661 7.55144 24.4475C8.13216 25.0288 9.07368 25.0288 9.6544 24.4475L11.0564 23.044M20.1692 11.8159L16.3138 15.6756M12.8088 24.1186L24.0465 12.8686C25.4015 11.5121 25.4015 9.31282 24.0465 7.95633C22.6915 6.59984 20.4946 6.59984 19.1396 7.95633L7.90195 19.2063L12.8088 24.1186Z" stroke="black" stroke-linecap="round" stroke-linejoin="round"/>
</svg>

<svg width="32" height="32" fill="none" xmlns="http://www.w3.org/2000/svg"><path d="m8.953 20.939-1.402 1.403a1.49 1.49 0 0 0 0 2.106c.581.58 1.523.58 2.103 0l1.402-1.404m9.113-11.228-3.855 3.86m-3.505 8.443 11.238-11.25a3.476 3.476 0 0 0 0-4.913 3.467 3.467 0 0 0-4.907 0L7.902 19.206l4.907 4.913Z" stroke="#000" stroke-linecap="round" stroke-linejoin="round"/></svg>
